X: 100082
M: 6/8
L: 1/8
K: Eb
uB !segno!|\
z  |\
(vg2e) BGB | (c2e) G3 | ABc (.E2.E) | (F2G) B,3 |\
(g2e) BGB | (c2e) (G2B) | ABc (f2g) | agf edc !segno!|]



